!!!COM: Janáček, Leoš [Leo Eugen]
!!!OTL: Příhody lišky Bystroušky (The Cunning Little Vixen), Opera in Three Acts
!!!OMV: Act III, Scene 2: Jak uhynula Liska Bystrouska (How the Vixen Bystrouska died)
!!!example: 150
!!!work: Jan-44
**kern	**kern	**dynam	**kern
*part2	*part2	*part2	*part1
*staff3	*staff2	*	*staff1
*I"Piano	*	*	*I"Bass Solo
*I'Pno.	*	*	*I'B. Solo
*clefF4	*clefG2	*	*clefF4
*k[]	*k[]	*	*k[]
*C:	*C:	*	*C:
*M3/4	*M3/4	*	*M3/4
*MM121	*MM121	*	*MM121
=615	=615	=615	=615
*	*^	*	*
(8B-X'L 8d	8r	4r	.	2.r
8B-'J)	8e-X	.	.	.
4E-X	4b-X	[2b-X	.	.
4B-	(8dd-XL	.	.	.
.	8ee-XJ	.	.	.
=616	=616	=616	=616	=616
*^	*	*	*	*
8r	4ryy	8dd-X'L	4b-]	.	2.r
8E-X	.	8b-X'J)	.	.	.
4B-X	[2B-XT	4e-X	4ryy	.	.
(8d-XL	.	4b-	4ryy	.	.
8e-XJ	.	.	.	.	.
*	*	*v	*v	*	*
=617	=617	=617	=617	=617
8d-X'L	4B-]	[2.b-XT [2.bb-X	.	2.r
8B-X'J)	.	.	.	.
4E-X	4ryy	.	.	.
4B-	4ryy	.	.	.
*v	*v	*	*	*
=618	=618	=618	=618
8d-XL	2.b-_ 2.bb-_	<	4r
8B-XJ	.	.	.
8E-XL	.	.	(8B-XL
8B-J	.	.	8B-J
8d-L	.	.	8B-L
8B-J	.	.	8B-J
=619	=619	=619	=619
8E-XL	2.b-_ 2.bb-_	.	8d-XL
8B-XJ	.	.	[8B-XJ
8d-XL	.	.	2B-]
8B-J	.	.	.
8E-L	.	.	.
8B-J	.	.	.
=620	=620	=620	=620
8cL	8b-L] 8bb-]	[	6E-X
8E-XJ	8a-X'J 8aa-X	f	.
.	.	.	6E-
8AA-XL	4ee-X 4eee-X	.	.
.	.	.	6E-)
8E-J	.	.	.
8cL	(8ffL 8fff	.	4r
8E-J	8ggJ 8ggg	.	.
=621	=621	=621	=621
8AA-XL	8ff'L 8fff	.	2.r
8E-XJ	8ee-X'J) 8eee-X	.	.
8cL	4a-X 4aa-X	.	.
8E-J	.	.	.
8AA-L	4cc 4ccc	.	.
8E-J	.	.	.
=622	=622	=622	=622
8cL	8r	.	4B-X
8E-XJ	8a-X' 8aa-X	<	.
8AA-XL	4ee-X 4eee-X	.	4B-
8E-J	.	.	.
8cL	(8ffL 8fff	.	4B-
8E-J	8ggJ 8ggg	.	.
=623	=623	=623	=623
8AA-XL	8ff'L 8fff	[ >	16%3B-XL
8E-XJ	8ee-X'J) 8eee-X	.	.
.	.	.	16%3B-
8cL	4a-X 4aa-X	.	.
8E-J	.	.	16%3B-
8AA-L	4cc 4ccc	.	.
.	.	.	16%3B-J
8E-J	.	.	.
=	=	=	=
*-	*-	*-	*-
!!!system-decoration: s1{(s2,s3)}
!!!CDT: 1854/07/03-1928/08/12
!!!CBL: Hukvaldy, Moravia
!!!CDL: Moravaská Ostrava, Czech Republic
!!!CNT: Czech
!!!AGN: Stage; Opera
!!!MCN: Neumann, František
!!!MDT: 1924/11/06
!!!MGN: Brno National Theatre Orchestra
!!!MLC: Brno, Czechia
!!!MPD: 1924
!!!MPN: Flogl, Arnold; Pelc, Antonin; Snopkova, Bozena; Zavrelova, Hana
!!!ODT: 1923 (rev. 1924)
!!!PDT: 1924
!!!excerpt-start-measure: 615
!!!excerpt-end-measure: 623
!!!excerpt-start-time: 3:21
!!!excerpt-end-time: 3:34
!!!EEV: 2020/01/25
!!!ONB: Converted from MusicXML on 2020/01/25
